X:1
T: Scotia Dance
C:
R:Strathspey
Q: 128
K:A
M:4/4
L:1/16
|:E4|A6 B2 c3B A3c|d3c BA3 G4 E3D|C3E A3B A4 ((3F2G2A2) |B3c B3F G3A Bc3|
A6 B2 c3B A3c|d3c BA3 G4 c3d|e3c B3A F3B cd3|c4 G3B A3B c3d|
e4 c3e fe3 ((3c2B2A2) |d3c B3A B4 A3B|c4 e4 dc3 A3F|B3A G3F E8|
e4 c3e gf3 f3c|d3e d3c B4 c3B|A4 F4 E3G A3B|c4 G3B A4:|
